X:487
T:Jack's Maggot. (p)1702.PLFD.487
M:4/4
L:1/8
Q:1/2=100
S:Playford, Dancing Master,Supp.to 11th Ed.,1702.
O:England
Z:Chris Partington.
K:D
z2|d2D2F2A2|BABcd2e2|fga2Bcd2|e3fe2dc/d/|
d2D2F2A2|Bcd2c2ag|f2d2e2c2|d4d2:|
|:fg|a2f4a2|f2d4ef|gfedc2d2|e6fg|
a2f2d2f2|A2d2F2A2|d3ee3d|d6:|
